X: 5
T: Valse Draque
R: waltz
C: Wouter Kuyper
M: 3/4
L: 1/8
K: Amin
"Am"E2 A2 B2 |c3 B A2 | "F"F4 A2 | "Am"E4 de| "Dm"f3 e d2 | "F"c4 A2 |1 c6 | "E"B6 :|2 "F"c4 "E"B2 | "Am"A6 | z2 AB cA||
|: "Dm"f6-|f2 AB cA| "Am"e6-| e2 AB cA| "E"B3 A^GA | B2 c2 d2 | "F"f4 "E"e2 -|e2 AB cA|
"Dm" f6-|f2 AB cA|"Am" e6-| e2 AB cA| "E"B3 A^GA | B2 c2 B2 | "Am" Az zA A2 |1Az AB cA:|2 A2  z2 z2|]

